projects/flag-game/flags/Syria.svg

<svg viewBox="0 0 1000 667" xmlns="http://www.w3.org/2000/svg" xmlns:xlink="http://www.w3.org/1999/xlink"><clipPath id="a"><path d="m0 0h1000v666.71875h-1000zm0 0"/></clipPath><g clip-path="url(#a)"><path d="m0 666.667969v-666.667969h1000v666.667969zm0 0" fill-rule="evenodd"/></g><g fill-rule="evenodd"><path d="m0 0h1000v444.445312h-1000zm0 0" fill="#fff"/><path d="m0 0h1000v222.222656h-1000zm0 0" fill="#ce1126"/><path d="m300 261.109375-22.320312 68.6875 42.269531 13.738281zm0 0" fill="#007a3d"/><path d="m300 261.109375 22.320312 68.6875-42.269531 13.738281zm0 0" fill="#007a3d"/><path d="m368.683594 311.015625h-72.222656v44.441406zm0 0" fill="#007a3d"/><path d="m368.683594 311.015625-58.425782 42.449219-26.121093-35.957032zm0 0" fill="#007a3d"/><path d="m231.316406 311.015625 58.425782 42.449219 26.121093-35.957032zm0 0" fill="#007a3d"/><path d="m231.316406 311.015625h72.222656v44.441406zm0 0" fill="#007a3d"/><path d="m342.453125 391.765625-22.320313-68.691406-42.269531 13.738281zm0 0" fill="#007a3d"/><path d="m342.453125 391.765625-58.429687-42.453125 26.121093-35.957031zm0 0" fill="#007a3d"/><path d="m257.546875 391.765625 58.429687-42.453125-26.121093-35.957031zm0 0" fill="#007a3d"/><path d="m257.546875 391.765625 22.320313-68.691406 42.269531 13.738281zm0 0" fill="#007a3d"/><path d="m700 261.109375-22.320312 68.6875 42.269531 13.738281zm0 0" fill="#007a3d"/><path d="m700 261.109375 22.320312 68.6875-42.269531 13.738281zm0 0" fill="#007a3d"/><path d="m768.683594 311.015625h-72.222656v44.441406zm0 0" fill="#007a3d"/><path d="m768.683594 311.015625-58.425782 42.449219-26.121093-35.957032zm0 0" fill="#007a3d"/><path d="m631.316406 311.015625 58.425782 42.449219 26.121093-35.957032zm0 0" fill="#007a3d"/><path d="m631.316406 311.015625h72.222656v44.441406zm0 0" fill="#007a3d"/><path d="m742.453125 391.765625-22.320313-68.691406-42.269531 13.738281zm0 0" fill="#007a3d"/><path d="m742.453125 391.765625-58.429687-42.453125 26.121093-35.957031zm0 0" fill="#007a3d"/><path d="m657.546875 391.765625 58.429687-42.453125-26.121093-35.957031zm0 0" fill="#007a3d"/><path d="m657.546875 391.765625 22.320313-68.691406 42.269531 13.738281zm0 0" fill="#007a3d"/></g></svg>

<?xml version="1.0" encoding="UTF-8"?>
<svg xmlns="http://www.w3.org/2000/svg" xmlns:xlink="http://www.w3.org/1999/xlink" viewBox="0 0 1000 667" version="1.1">
<defs>
<clipPath id="clip1">
  <path d="M 0 0 L 1000 0 L 1000 666.71875 L 0 666.71875 Z M 0 0 "/>
</clipPath>
</defs>
<g id="surface1155">
<g clip-path="url(#clip1)" clip-rule="nonzero">
<path style=" stroke:none;fill-rule:evenodd;fill:rgb(0%,0%,0%);fill-opacity:1;" d="M 0 666.667969 L 0 0 L 1000 0 L 1000 666.667969 Z M 0 666.667969 "/>
</g>
<path style=" stroke:none;fill-rule:evenodd;fill:rgb(99.998474%,99.998474%,99.998474%);fill-opacity:1;" d="M 0 0 L 1000 0 L 1000 444.445312 L 0 444.445312 Z M 0 0 "/>
<path style=" stroke:none;fill-rule:evenodd;fill:rgb(80.783081%,6.666565%,14.901733%);fill-opacity:1;" d="M 0 0 L 1000 0 L 1000 222.222656 L 0 222.222656 Z M 0 0 "/>
<path style=" stroke:none;fill-rule:evenodd;fill:rgb(0%,47.842407%,23.921204%);fill-opacity:1;" d="M 300 261.109375 L 277.679688 329.796875 L 319.949219 343.535156 Z M 300 261.109375 "/>
<path style=" stroke:none;fill-rule:evenodd;fill:rgb(0%,47.842407%,23.921204%);fill-opacity:1;" d="M 300 261.109375 L 322.320312 329.796875 L 280.050781 343.535156 Z M 300 261.109375 "/>
<path style=" stroke:none;fill-rule:evenodd;fill:rgb(0%,47.842407%,23.921204%);fill-opacity:1;" d="M 368.683594 311.015625 L 296.460938 311.015625 L 296.460938 355.457031 Z M 368.683594 311.015625 "/>
<path style=" stroke:none;fill-rule:evenodd;fill:rgb(0%,47.842407%,23.921204%);fill-opacity:1;" d="M 368.683594 311.015625 L 310.257812 353.464844 L 284.136719 317.507812 Z M 368.683594 311.015625 "/>
<path style=" stroke:none;fill-rule:evenodd;fill:rgb(0%,47.842407%,23.921204%);fill-opacity:1;" d="M 231.316406 311.015625 L 289.742188 353.464844 L 315.863281 317.507812 Z M 231.316406 311.015625 "/>
<path style=" stroke:none;fill-rule:evenodd;fill:rgb(0%,47.842407%,23.921204%);fill-opacity:1;" d="M 231.316406 311.015625 L 303.539062 311.015625 L 303.539062 355.457031 Z M 231.316406 311.015625 "/>
<path style=" stroke:none;fill-rule:evenodd;fill:rgb(0%,47.842407%,23.921204%);fill-opacity:1;" d="M 342.453125 391.765625 L 320.132812 323.074219 L 277.863281 336.8125 Z M 342.453125 391.765625 "/>
<path style=" stroke:none;fill-rule:evenodd;fill:rgb(0%,47.842407%,23.921204%);fill-opacity:1;" d="M 342.453125 391.765625 L 284.023438 349.3125 L 310.144531 313.355469 Z M 342.453125 391.765625 "/>
<path style=" stroke:none;fill-rule:evenodd;fill:rgb(0%,47.842407%,23.921204%);fill-opacity:1;" d="M 257.546875 391.765625 L 315.976562 349.3125 L 289.855469 313.355469 Z M 257.546875 391.765625 "/>
<path style=" stroke:none;fill-rule:evenodd;fill:rgb(0%,47.842407%,23.921204%);fill-opacity:1;" d="M 257.546875 391.765625 L 279.867188 323.074219 L 322.136719 336.8125 Z M 257.546875 391.765625 "/>
<path style=" stroke:none;fill-rule:evenodd;fill:rgb(0%,47.842407%,23.921204%);fill-opacity:1;" d="M 700 261.109375 L 677.679688 329.796875 L 719.949219 343.535156 Z M 700 261.109375 "/>
<path style=" stroke:none;fill-rule:evenodd;fill:rgb(0%,47.842407%,23.921204%);fill-opacity:1;" d="M 700 261.109375 L 722.320312 329.796875 L 680.050781 343.535156 Z M 700 261.109375 "/>
<path style=" stroke:none;fill-rule:evenodd;fill:rgb(0%,47.842407%,23.921204%);fill-opacity:1;" d="M 768.683594 311.015625 L 696.460938 311.015625 L 696.460938 355.457031 Z M 768.683594 311.015625 "/>
<path style=" stroke:none;fill-rule:evenodd;fill:rgb(0%,47.842407%,23.921204%);fill-opacity:1;" d="M 768.683594 311.015625 L 710.257812 353.464844 L 684.136719 317.507812 Z M 768.683594 311.015625 "/>
<path style=" stroke:none;fill-rule:evenodd;fill:rgb(0%,47.842407%,23.921204%);fill-opacity:1;" d="M 631.316406 311.015625 L 689.742188 353.464844 L 715.863281 317.507812 Z M 631.316406 311.015625 "/>
<path style=" stroke:none;fill-rule:evenodd;fill:rgb(0%,47.842407%,23.921204%);fill-opacity:1;" d="M 631.316406 311.015625 L 703.539062 311.015625 L 703.539062 355.457031 Z M 631.316406 311.015625 "/>
<path style=" stroke:none;fill-rule:evenodd;fill:rgb(0%,47.842407%,23.921204%);fill-opacity:1;" d="M 742.453125 391.765625 L 720.132812 323.074219 L 677.863281 336.8125 Z M 742.453125 391.765625 "/>
<path style=" stroke:none;fill-rule:evenodd;fill:rgb(0%,47.842407%,23.921204%);fill-opacity:1;" d="M 742.453125 391.765625 L 684.023438 349.3125 L 710.144531 313.355469 Z M 742.453125 391.765625 "/>
<path style=" stroke:none;fill-rule:evenodd;fill:rgb(0%,47.842407%,23.921204%);fill-opacity:1;" d="M 657.546875 391.765625 L 715.976562 349.3125 L 689.855469 313.355469 Z M 657.546875 391.765625 "/>
<path style=" stroke:none;fill-rule:evenodd;fill:rgb(0%,47.842407%,23.921204%);fill-opacity:1;" d="M 657.546875 391.765625 L 679.867188 323.074219 L 722.136719 336.8125 Z M 657.546875 391.765625 "/>
</g>
</svg>
